static/img/icons/cube.svg

<svg xmlns="http://www.w3.org/2000/svg" viewBox="0 0 24 24" xml:space="preserve">
	<path
		d="M21.485,6.126l-9-5c-0.303-0.168-0.669-0.168-0.972,0l-9,5C2.197,6.302,2,6.637,2,7v10c0,0.363,0.197,0.698,0.514,0.874l9,5
	C11.666,22.958,11.833,23,12,23s0.334-0.042,0.486-0.126l9-5C21.803,17.698,22,17.363,22,17V7C22,6.637,21.803,6.302,21.485,6.126z
	 M12,3.144L18.94,7L12,10.856L5.059,7L12,3.144z M4,8.699l7,3.889v7.712l-7-3.89V8.699z M13,20.301v-7.712l7-3.889v7.712L13,20.301z
	"
	/>
</svg>

<svg viewBox="0 0 24 24" fill="none" xmlns="http://www.w3.org/2000/svg">
	<path
		d="M21.485 6.126L12.485 1.126C12.184 0.958 11.815 0.958 11.514 1.126L2.51401 6.126C2.19701 6.302 2 6.637 2 7V17C2 17.363 2.197 17.698 2.515 17.874L11.515 22.874C11.665 22.958 11.833 23 12 23C12.167 23 12.335 22.958 12.485 22.874L21.485 17.874C21.803 17.698 22 17.363 22 17V7C22 6.637 21.803 6.302 21.485 6.126ZM12 3.144L18.94 7L12 10.856L5.06 7L12 3.144ZM4 8.699L11 12.588V20.301L4 16.411V8.699ZM13 20.301V12.588L20 8.699V16.411L13 20.301Z"
		fill="currentColor"
	/>
</svg>
